assets/icons/qvision/auto_fix_off.svg

<svg width="24" height="24" viewBox="0 0 24 24" fill="none" xmlns="http://www.w3.org/2000/svg">
<g clip-path="url(#clip0_147_3218)">
<path d="M23.0001 1L20.5001 2.4L18.0001 1L19.4001 3.5L18.0001 6L20.5001 4.6L23.0001 6L21.6001 3.5L23.0001 1ZM14.6601 7.22L16.7801 9.34L14.3401 11.78L15.1501 12.59L17.7001 10.04C18.0901 9.65 18.0901 9.02 17.7001 8.63L15.3601 6.29C14.9701 5.9 14.3401 5.9 13.9501 6.29L11.4001 8.84L12.2101 9.65L14.6601 7.22ZM13.8801 13.87L10.1301 10.12L3.27006 3.26L2.00006 4.53L8.86006 11.39L2.29006 17.96C1.90006 18.35 1.90006 18.98 2.29006 19.37L4.63006 21.71C5.02006 22.1 5.65006 22.1 6.04006 21.71L12.6101 15.14L19.4701 22L20.7401 20.73L13.8801 13.87Z" fill="#323232"/>
</g>
<defs>
<clipPath id="clip0_147_3218">
<rect width="24" height="24" fill="white"/>
</clipPath>
</defs>
</svg>

<svg xmlns="http://www.w3.org/2000/svg" height="24" viewBox="0 0 24 24" width="24"><path d="M0 0h24v24H0zm0 0h24v24H0z" fill="none"/><path d="M23 1l-2.5 1.4L18 1l1.4 2.5L18 6l2.5-1.4L23 6l-1.4-2.5L23 1zm-8.34 6.22l2.12 2.12-2.44 2.44.81.81 2.55-2.55c.39-.39.39-1.02 0-1.41l-2.34-2.34c-.39-.39-1.02-.39-1.41 0L11.4 8.84l.81.81 2.45-2.43zm-.78 6.65l-3.75-3.75-6.86-6.86L2 4.53l6.86 6.86-6.57 6.57c-.39.39-.39 1.02 0 1.41l2.34 2.34c.39.39 1.02.39 1.41 0l6.57-6.57L19.47 22l1.27-1.27-6.86-6.86z"/></svg>
